source/img/mylogo.svg

<svg width="95" height="53" viewBox="0 0 95 53" version="1.1" xmlns="http://www.w3.org/2000/svg" xmlns:xlink="http://www.w3.org/1999/xlink">
<title>mylogo</title>
<desc>Created using Figma</desc>
<g id="Canvas" transform="translate(157 198)">
<g id="mylogo">
<g id="Canvas">
<g id="Group">
<g id="Vector 3">
<g id="Vector">
<use xlink:href="#path0_fill" transform="translate(-91 -198)" fill="#FFFFFF"/>
<use xlink:href="#path0_fill" transform="translate(-91 -198)" fill="url(#paint1_linear)"/>
</g>
</g>
<g id="Vector">
<g id="Vector">
<use xlink:href="#path1_fill" transform="translate(-157 -190.954)" fill="#FFFFFF"/>
<use xlink:href="#path1_fill" transform="translate(-157 -190.954)" fill="url(#paint3_linear)"/>
</g>
</g>
<g id="Vector 2">
<g id="Vector">
<use xlink:href="#path2_fill" transform="translate(-138.006 -196.748)" fill="#FFFFFF"/>
<use xlink:href="#path2_fill" transform="translate(-138.006 -196.748)" fill="url(#paint5_linear)"/>
</g>
</g>
<g id="ARTEM ILCHENKO">
<g id="Vector">
<use xlink:href="#path3_fill" transform="translate(-157 -152.776)" fill="#FFFFFF"/>
<use xlink:href="#path3_fill" transform="translate(-157 -152.776)" fill="url(#paint7_linear)"/>
</g>
</g>
</g>
</g>
</g>
</g>
<defs>
<linearGradient id="paint1_linear" x1="0" y1="0" x2="1" y2="0" gradientUnits="userSpaceOnUse" gradientTransform="matrix(1.39899e-15 17.3392 -22.8472 1.06172e-15 22.8472 -1.06172e-15)">
<stop offset="0" stop-color="#666463"/>
<stop offset="1" stop-color="#080707" stop-opacity="0"/>
</linearGradient>
<linearGradient id="paint3_linear" x1="0" y1="0" x2="1" y2="0" gradientUnits="userSpaceOnUse" gradientTransform="matrix(1.70576e-15 25.3414 -27.8572 1.55172e-15 27.8572 -1.55172e-15)">
<stop offset="0" stop-color="#666463"/>
<stop offset="1" stop-color="#080707" stop-opacity="0"/>
</linearGradient>
<linearGradient id="paint5_linear" x1="0" y1="0" x2="1" y2="0" gradientUnits="userSpaceOnUse" gradientTransform="matrix(4.03179e-15 40.5602 -65.8442 2.48359e-15 65.8442 -2.48359e-15)">
<stop offset="0" stop-color="#666463"/>
<stop offset="1" stop-color="#080707" stop-opacity="0"/>
</linearGradient>
<linearGradient id="paint7_linear" x1="0" y1="0" x2="1" y2="0" gradientUnits="userSpaceOnUse" gradientTransform="matrix(5.81707e-15 7.77551 -95 4.76112e-16 95 -4.76112e-16)">
<stop offset="0" stop-color="#666463"/>
<stop offset="1" stop-color="#080707" stop-opacity="0"/>
</linearGradient>
<path id="path0_fill" d="M 0.010064 7.55777C 0.7698 5.29044 4.17861 5.45353 4.06201 5.29044C 3.94541 5.12734 6.088 0 9.38021 0C 11.9127 0 12.9824 1.08801 14.1919 3.52696C 16.2992 3.34629 17.2749 3.57001 18.4971 4.78659C 18.8628 5.76537 18.7504 6.80199 18.7504 7.30584C 18.7504 7.80969 23.3475 7.20804 22.8023 10.5809C 22.6894 12.9084 21.5773 13.5353 18.7504 14.1078L 17.2309 14.1078C 15.8586 15.5692 14.8094 15.8194 13.6854 16.3752C 12.5614 16.931 10.8547 17.9284 9.38021 16.879C 7.84701 15.7878 7.76794 11.672 0.991153 11.8405C 0.484652 11.8405 -0.0828137 8.25253 0.010064 7.55777Z"/>
<path id="path1_fill" d="M 17.474 23.178C 17.1491 21.0686 16.9675 21.6665 16.9675 19.651C 16.9675 17.62 17.2208 16.6279 18.487 14.3606C 19.7533 12.3452 20.6087 11.7272 22.539 10.5817C 24.2923 9.48736 26.3377 9.07018 27.0974 8.81825C 27.8572 8.56632 27.8572 7.55862 27.8572 7.05477C 27.6039 4.53551 27.4043 3.52768 27.3507 3.27589C 27.297 3.02409 25.7635 1.45697 24.5649 0.756633C 22.8888 0.0417031 22.1398 -0.00815029 20.2598 0.000854749C 18.2239 0.266258 17.3203 0.698932 15.9546 1.76434C 14.8493 2.98819 14.3247 3.78561 13.6753 5.54322C 13.2925 6.61929 13.1486 7.06606 12.9156 7.81055C 12.907 7.86038 12.4883 8.62769 12.4091 8.56632C 12.3299 8.50496 11.4686 8.01174 10.6364 8.06247C 9.80415 8.11321 8.86364 8.3144 8.1039 9.07018C 7.57451 9.5968 7.30506 10.6052 6.58442 11.3375C 5.86378 12.0698 3.8111 11.6139 2.53247 12.3452C 0.820044 13.8481 0.327141 14.8638 0 16.8799C 0.412639 18.9084 0.976809 19.4732 2.02598 20.4068C 3.44593 21.0958 4.3356 21.3119 6.07793 21.4145L 8.61039 21.4145C 8.87387 22.6391 9.09562 23.1357 9.62338 23.6819C 11.1353 24.7347 11.2693 24.647 12.9156 25.1934C 15.6267 25.5867 17.799 25.2874 17.474 23.178Z"/>
<path id="path2_fill" fill-rule="evenodd" d="M 0 25.4445C 0.503537 22.2533 1.33008 20.9047 3.29221 18.8944C 5.82468 17.1309 9.62338 16.879 9.87663 16.3752C 10.1299 15.8713 10.0517 13.2898 10.8896 11.3366C 11.7275 9.38347 12.288 8.46747 13.9286 8.06162C 16.461 7.55777 20.0281 8.40217 20.513 8.06162C 20.9979 7.72106 23.2554 4.05434 25.3247 2.26733C 27.8631 0.655193 29.3792 0.263715 32.1624 0C 35.856 0.418011 37.1208 1.05994 39.2533 2.26733C 41.4807 4.1702 42.511 5.36486 43.8117 7.80969C 44.4683 9.89836 44.7595 11.0587 45.0779 13.1001C 47.0143 12.9312 48.3859 12.754 50.6494 13.1001C 53.6883 14.1078 53.9649 15.7075 54.9546 17.6348C 57.5458 18.3512 57.0363 17.8108 60.7793 19.1463C 64.5222 20.4819 65.7044 23.1749 65.8442 26.4522C 65.7191 29.9809 64.0618 31.2066 61.0325 33.0022C 58.0032 34.7979 54.1204 33.2617 52.4221 34.0099C 50.7238 34.7582 50.1429 37.0331 49.3831 38.0408C 48.0133 39.9091 46.9652 40.1611 45.0779 40.56C 42.861 40.5675 41.7857 40.3081 40.013 39.8042C 37.987 39.0485 37.505 38.848 36.2143 38.0408C 34.3253 38.8293 33.1942 39.1108 31.1494 39.5523C 29.7296 39.932 28.8591 40.0609 27.0974 40.0562C 24.7253 39.8207 23.287 39.4958 20.513 38.5446C 17.6092 37.0871 16.1599 36.0485 13.9286 33.758C 10.7821 33.7809 9.13532 33.5859 6.33117 33.0022C 4.89454 32.3981 4.17338 32.0122 3.03896 31.2388C 1.66434 30.2661 1.22024 29.628 0.506494 28.4676C 0.121405 27.287 0.027544 26.6251 0 25.4445ZM 13.1688 24.4368L 13.1688 20.6579L 27.8572 13.1001L 26.8442 17.1309L 16.7143 22.6733L 23.552 28.4676L 22.7922 31.9945L 13.1688 24.4368ZM 25.8312 32.2465L 31.4026 13.1001L 34.9481 13.1001L 29.3766 32.2465L 25.8312 32.2465ZM 36.974 16.6271L 37.987 13.1001L 48.1169 21.6656L 46.5974 25.1926L 32.4156 31.9945L 33.4286 28.2157L 43.5585 22.4214L 36.974 16.6271Z"/>
<path id="path3_fill" d="M 5.4792 7.67217L 5.10526 6.25654L 2.63832 6.25654L 2.254 7.67217L 0 7.67217L 2.47732 0.0878313L 5.2143 0.0878313L 7.72281 7.67217L 5.4792 7.67217ZM 4.67938 4.58265L 4.35218 3.34267C 4.27601 3.06717 4.18253 2.71064 4.07173 2.27325C 3.9644 1.83581 3.89342 1.52238 3.8588 1.33294C 3.82764 1.5086 3.76532 1.79792 3.67183 2.2009C 3.58181 2.60388 3.37927 3.3978 3.06419 4.58265L 4.67938 4.58265ZM 10.6 4.92361L 10.6 7.67217L 8.54855 7.67217L 8.54855 0.118828L 11.0363 0.118828C 13.0999 0.118828 14.1316 0.862795 14.1316 2.35074C 14.1316 3.22558 13.7023 3.9024 12.8436 4.38116L 15.0561 7.67217L 12.7294 7.67217L 11.1194 4.92361L 10.6 4.92361ZM 10.6 3.38918L 10.9843 3.38918C 11.7011 3.38918 12.0594 3.07402 12.0594 2.4437C 12.0594 1.92363 11.708 1.66359 11.0051 1.66359L 10.6 1.66359L 10.6 3.38918ZM 19.0966 7.67217L 17.0452 7.67217L 17.0452 1.78759L 15.1911 1.78759L 15.1911 0.118828L 20.9455 0.118828L 20.9455 1.78759L 19.0966 1.78759L 19.0966 7.67217ZM 26.539 7.67217L 22.031 7.67217L 22.031 0.118828L 26.539 0.118828L 26.539 1.7566L 24.0825 1.7566L 24.0825 2.94488L 26.3572 2.94488L 26.3572 4.58265L 24.0825 4.58265L 24.0825 6.00855L 26.539 6.00855L 26.539 7.67217ZM 31.1768 7.67217L 29.624 2.23188L 29.5772 2.23188C 29.6499 3.15842 29.6863 3.87827 29.6863 4.39149L 29.6863 7.67217L 27.8686 7.67217L 27.8686 0.118828L 30.6003 0.118828L 32.1844 5.48157L 32.2259 5.48157L 33.7788 0.118828L 36.5158 0.118828L 36.5158 7.67217L 34.6305 7.67217L 34.6305 4.36045C 34.6305 4.18824 34.6323 3.99713 34.6357 3.78702C 34.6427 3.57691 34.6669 3.06198 34.7085 2.24221L 34.6617 2.24221L 33.1296 7.67217L 31.1768 7.67217ZM 40.9147 7.67217L 40.9147 0.118828L 42.9766 0.118828L 42.9766 7.67217L 40.9147 7.67217ZM 44.6229 7.67217L 44.6229 0.118828L 46.6744 0.118828L 46.6744 6.02407L 49.5983 6.02407L 49.5983 7.67217L 44.6229 7.67217ZM 54.1948 1.68425C 53.7066 1.68425 53.3257 1.88402 53.0522 2.28358C 52.7787 2.67966 52.6419 3.22729 52.6419 3.92649C 52.6419 5.38 53.1975 6.10675 54.3088 6.10675C 54.6446 6.10675 54.9703 6.06024 55.2853 5.96723C 55.6004 5.87422 55.9169 5.76232 56.2355 5.63142L 56.2355 7.35701C 55.6019 7.63599 54.8852 7.7755 54.0854 7.7755C 52.9392 7.7755 52.06 7.44483 51.4471 6.78352C 50.8378 6.12222 50.5331 5.16646 50.5331 3.91616C 50.5331 3.13433 50.6803 2.44718 50.9745 1.85475C 51.2724 1.26233 51.6983 0.807688 52.2524 0.490811C 52.8096 0.170493 53.464 0.0103339 54.2156 0.0103339C 55.0361 0.0103339 55.8202 0.187715 56.5683 0.542476L 55.9397 2.14925C 55.6591 2.01835 55.3785 1.90816 55.0984 1.81858C 54.8178 1.72904 54.5165 1.68425 54.1948 1.68425ZM 64.2285 7.67217L 62.1665 7.67217L 62.1665 4.59298L 59.783 4.59298L 59.783 7.67217L 57.721 7.67217L 57.721 0.118828L 59.783 0.118828L 59.783 2.91904L 62.1665 2.91904L 62.1665 0.118828L 64.2285 0.118828L 64.2285 7.67217ZM 70.3829 7.67217L 65.8751 7.67217L 65.8751 0.118828L 70.3829 0.118828L 70.3829 1.7566L 67.9264 1.7566L 67.9264 2.94488L 70.2011 2.94488L 70.2011 4.58265L 67.9264 4.58265L 67.9264 6.00855L 70.3829 6.00855L 70.3829 7.67217ZM 78.9416 7.67217L 76.2516 7.67217L 73.4781 2.35074L 73.4315 2.35074C 73.4973 3.18769 73.5302 3.82662 73.5302 4.26749L 73.5302 7.67217L 71.7124 7.67217L 71.7124 0.118828L 74.3923 0.118828L 77.1552 5.36795L 77.1866 5.36795C 77.138 4.60674 77.1137 3.99536 77.1137 3.53383L 77.1137 0.118828L 78.9416 0.118828L 78.9416 7.67217ZM 87.0698 7.67217L 84.7531 7.67217L 83.2524 4.78414L 82.6446 5.14576L 82.6446 7.67217L 80.5832 7.67217L 80.5832 0.118828L 82.6446 0.118828L 82.6446 3.39951C 82.7484 3.19631 82.9581 2.87424 83.2731 2.43337L 84.8676 0.118828L 87.1114 0.118828L 84.7172 3.50285L 87.0698 7.67217ZM 95 3.88517C 95 5.15608 94.687 6.12222 94.0599 6.78352C 93.4334 7.44483 92.5162 7.7755 91.3077 7.7755C 90.1164 7.7755 89.2027 7.44311 88.5655 6.77838C 87.9319 6.1136 87.6148 5.14576 87.6148 3.87484C 87.6148 2.61768 87.9299 1.65845 88.5604 0.997121C 89.1941 0.332376 90.1134 8.68762e-08 91.3178 8.68762e-08C 92.5263 8.68762e-08 93.442 0.328929 94.0655 0.986792C 94.6885 1.64465 95 2.61078 95 3.88517ZM 89.7755 3.88517C 89.7755 5.34553 90.2861 6.07571 91.3077 6.07571C 91.8268 6.07571 92.2112 5.89836 92.4604 5.5436C 92.7132 5.18883 92.8398 4.63601 92.8398 3.88517C 92.8398 3.13085 92.7117 2.5746 92.4554 2.21642C 92.2026 1.85475 91.8233 1.67392 91.3178 1.67392C 90.2896 1.67392 89.7755 2.411 89.7755 3.88517Z"/>
</defs>
</svg>

<svg width="95" height="53" xmlns="http://www.w3.org/2000/svg" xmlns:xlink="http://www.w3.org/1999/xlink"><g transform="translate(66)"><use xlink:href="#path0_fill" fill="#FFF"/><use xlink:href="#path0_fill" fill="url(#paint1_linear)"/></g><g transform="translate(0 7.046)"><use xlink:href="#path1_fill" fill="#FFF"/><use xlink:href="#path1_fill" fill="url(#paint3_linear)"/></g><g transform="translate(18.994 1.252)"><use xlink:href="#path2_fill" fill="#FFF"/><use xlink:href="#path2_fill" fill="url(#paint5_linear)"/></g><g transform="translate(0 45.224)"><use xlink:href="#path3_fill" fill="#FFF"/><use xlink:href="#path3_fill" fill="url(#paint7_linear)"/></g><defs><linearGradient id="paint1_linear" x2="1" gradientUnits="userSpaceOnUse" gradientTransform="matrix(0 17.3392 -22.8472 0 22.847 0)"><stop offset="0" stop-color="#666463"/><stop offset="1" stop-color="#080707" stop-opacity="0"/></linearGradient><linearGradient id="paint3_linear" x2="1" gradientUnits="userSpaceOnUse" gradientTransform="matrix(0 25.3414 -27.8572 0 27.857 0)"><stop offset="0" stop-color="#666463"/><stop offset="1" stop-color="#080707" stop-opacity="0"/></linearGradient><linearGradient id="paint5_linear" x2="1" gradientUnits="userSpaceOnUse" gradientTransform="matrix(0 40.5602 -65.8442 0 65.844 0)"><stop offset="0" stop-color="#666463"/><stop offset="1" stop-color="#080707" stop-opacity="0"/></linearGradient><linearGradient id="paint7_linear" x2="1" gradientUnits="userSpaceOnUse" gradientTransform="matrix(0 7.77551 -95 0 95 0)"><stop offset="0" stop-color="#666463"/><stop offset="1" stop-color="#080707" stop-opacity="0"/></linearGradient><path id="path0_fill" d="M.01 7.558C.77 5.29 4.18 5.454 4.062 5.29 3.945 5.127 6.088 0 9.38 0c2.533 0 3.602 1.088 4.812 3.527 2.107-.18 3.083.043 4.305 1.26.366.978.253 2.015.253 2.519s4.598-.098 4.052 3.275c-.113 2.327-1.225 2.954-4.052 3.527h-1.52c-1.371 1.461-2.42 1.711-3.545 2.267-1.124.556-2.83 1.553-4.305.504-1.533-1.091-1.612-5.207-8.389-5.039-.506 0-1.074-3.587-.98-4.282z"/><path id="path1_fill" d="M17.474 23.178c-.325-2.11-.506-1.512-.506-3.527 0-2.031.253-3.023 1.519-5.29 1.266-2.016 2.122-2.634 4.052-3.78 1.753-1.094 3.799-1.51 4.558-1.763.76-.252.76-1.26.76-1.763-.253-2.52-.453-3.527-.506-3.78-.054-.25-1.587-1.818-2.786-2.518C22.889.042 22.14-.008 20.26 0c-2.036.265-2.94.698-4.305 1.763-1.106 1.224-1.63 2.022-2.28 3.78a51.28 51.28 0 0 0-.76 2.267c-.008.05-.427.817-.506.755-.08-.061-.94-.554-1.773-.504-.832.051-1.772.252-2.532 1.008-.53.527-.799 1.535-1.52 2.268-.72.732-2.773.276-4.052 1.007C.82 13.848.327 14.864 0 16.88c.413 2.028.977 2.593 2.026 3.527 1.42.689 2.31.905 4.052 1.008H8.61c.264 1.224.486 1.72 1.013 2.267 1.512 1.053 1.646.965 3.293 1.511 2.71.394 4.883.094 4.558-2.015z"/><path id="path2_fill" fill-rule="evenodd" d="M0 25.445c.504-3.192 1.33-4.54 3.292-6.55 2.533-1.764 6.331-2.016 6.585-2.52.253-.504.175-3.085 1.013-5.038.837-1.954 1.398-2.87 3.039-3.275 2.532-.504 6.1.34 6.584 0 .485-.34 2.742-4.008 4.812-5.795C27.863.655 29.379.264 32.162 0c3.694.418 4.959 1.06 7.091 2.267 2.228 1.903 3.258 3.098 4.559 5.543.656 2.088.948 3.249 1.266 5.29 1.936-.169 3.308-.346 5.571 0 3.04 1.008 3.316 2.607 4.306 4.535 2.59.716 2.081.176 5.824 1.511 3.743 1.336 4.925 4.029 5.065 7.306-.125 3.529-1.782 4.755-4.811 6.55-3.03 1.796-6.913.26-8.61 1.008-1.7.748-2.28 3.023-3.04 4.03-1.37 1.87-2.418 2.121-4.305 2.52-2.217.008-3.292-.252-5.065-.756-2.026-.756-2.508-.956-3.799-1.763-1.889.788-3.02 1.07-5.065 1.511-1.42.38-2.29.509-4.052.504-2.372-.235-3.81-.56-6.584-1.511-2.904-1.458-4.353-2.497-6.584-4.787-3.147.023-4.794-.172-7.598-.756-1.436-.604-2.158-.99-3.292-1.763-1.375-.973-1.819-1.611-2.533-2.771C.121 27.287.028 26.625 0 25.445zm13.169-1.008v-3.78L27.857 13.1l-1.013 4.03-10.13 5.543 6.838 5.795-.76 3.526-9.623-7.557zm12.662 7.81L31.403 13.1h3.545l-5.571 19.146H25.83zm11.143-15.62l1.013-3.527 10.13 8.566-1.52 3.527-14.181 6.801 1.013-3.778 10.13-5.795-6.585-5.794z"/><path id="path3_fill" d="M5.48 7.672l-.375-1.415H2.638l-.384 1.415H0L2.477.088h2.737l2.509 7.584H5.479zm-.8-3.09l-.328-1.24c-.076-.275-.17-.631-.28-1.069-.108-.437-.179-.75-.213-.94-.031.176-.094.465-.187.868-.09.403-.293 1.197-.608 2.382H4.68zm5.92.342v2.748H8.549V.12h2.487c2.064 0 3.096.744 3.096 2.232 0 .875-.43 1.551-1.288 2.03l2.212 3.291H12.73l-1.61-2.748H10.6zm0-1.535h.384c.717 0 1.075-.315 1.075-.945 0-.52-.351-.78-1.054-.78H10.6v1.725zm8.497 4.283h-2.052V1.788h-1.854V.118h5.754v1.67h-1.848v5.884zm7.442 0h-4.508V.12h4.508v1.638h-2.457v1.188h2.275v1.638h-2.274v1.426h2.456v1.663zm4.638 0l-1.553-5.44h-.047c.073.926.11 1.646.11 2.16v3.28h-1.818V.12H30.6l1.584 5.363h.042L33.779.119h2.737v7.553H34.63V4.36c0-.172.002-.363.006-.573.007-.21.03-.725.072-1.545h-.046l-1.532 5.43h-1.953zm9.738 0V.12h2.062v7.553h-2.062zm3.708 0V.12h2.051v5.905h2.924v1.648h-4.975zm9.572-5.988c-.488 0-.87.2-1.143.6-.273.396-.41.943-.41 1.642 0 1.454.555 2.18 1.667 2.18.336 0 .661-.046.976-.139.315-.093.632-.205.95-.336v1.726c-.633.279-1.35.418-2.15.418-1.146 0-2.025-.33-2.638-.991-.61-.662-.914-1.618-.914-2.868 0-.782.147-1.469.441-2.061A3.172 3.172 0 0 1 52.252.49c.558-.32 1.212-.48 1.964-.48.82 0 1.604.177 2.352.531L55.94 2.15a7.123 7.123 0 0 0-.842-.33 2.957 2.957 0 0 0-.903-.135zm10.033 5.988h-2.061V4.593h-2.384v3.08h-2.062V.118h2.062v2.8h2.383v-2.8h2.063v7.553zm6.155 0h-4.508V.12h4.508v1.638h-2.457v1.188h2.275v1.638h-2.275v1.426h2.457v1.663zm8.559 0h-2.69l-2.774-5.321h-.046c.065.837.098 1.476.098 1.916v3.405h-1.818V.12h2.68l2.763 5.249h.032a30.178 30.178 0 0 1-.073-1.834V.119h1.828v7.553zm8.128 0h-2.317l-1.5-2.888-.608.362v2.526h-2.062V.12h2.062v3.28c.103-.203.313-.525.628-.966L84.868.12h2.243l-2.394 3.384 2.353 4.17zM95 3.885c0 1.271-.313 2.237-.94 2.899-.627.66-1.544.992-2.752.992-1.192 0-2.105-.333-2.743-.998-.633-.664-.95-1.632-.95-2.903 0-1.257.315-2.217.945-2.878C89.194.332 90.113 0 91.318 0c1.208 0 2.124.329 2.748.987.623.658.934 1.624.934 2.898zm-5.225 0c0 1.46.511 2.19 1.533 2.19.519 0 .903-.177 1.152-.531.253-.355.38-.908.38-1.659 0-.754-.128-1.31-.385-1.669-.252-.361-.632-.542-1.137-.542-1.028 0-1.543.737-1.543 2.211z"/></defs></svg>
